X:1
T:Hornchurch, 87.87 D
T:Hornchurch, 87.87 D
T:Anonymous, 1882
T:Public Domain Courtesy of the Cyber Hymnal™
C:Anonymous, 1882
Z:Public Domain
Z:Courtesy of the Cyber Hymnal™
%%score ( 1 2 ) ( 3 4 )
L:1/8
Q:1/4=97
M:3/4
K:A
V:1 treble 
V:2 treble 
V:3 bass 
V:4 bass 
V:1
 [CE][CE] | [DF]3 [DF] [CE][CE] | [EA]2 [CA]2 [Ec][EA] | [EB]3 [EB] [EA][EB] | [Ec]4 [Ec][Ec] | %5
 [Fd]3 [Fd] [Fd][Fd] | [Fd]2 [Ec]2 [Ec][Ec] | [EB]3 [EB] [^DB]>[Dc] | [EB]4 [CA][CA] | %9
 [^Ec]2 [Ec]2 [FA][FA] | [^Ec]2 [Ec]2 [FA][Fc] | [FB][FA] [EG]2 [^DF]2 | E4 [DE][DE] | %13
 [CA]3 [CE] [EA][EB] | [Ec]2 [Ae]2 [=Ge][Ge] | [Fd]3 [FB] [EA][EG] | [EA]4 |] %17
V:2
 x2 | x6 | x6 | x6 | x6 | x6 | x6 | x6 | x6 | x6 | x6 | x6 | E4 x2 | x6 | x6 | x6 | x4 |] %17
V:3
 [A,,A,][A,,A,] | [D,A,]3 [D,A,] [A,,A,][A,,A,] | [C,A,]2 [A,,A,]2 [A,,A,][C,A,] | %3
 [E,G,]3 [E,G,] [E,F,][E,G,] | A,4 A,A, | [D,A,]3 [D,A,] [D,A,][D,A,] | A,2 A,2 A,A, | %7
 [E,G,]3 [E,G,] [B,,A,]>[B,,A,] | [E,G,]4 [F,A,][F,A,] | [C,G,]2 [C,G,]2 [F,A,][F,A,] | %10
 [C,G,]2 [C,G,]2 [F,A,][F,A,] | [^D,B,][D,B,] [E,B,]2 [B,,A,]2 | [E,G,]4 [E,G,][E,G,] | %13
 [A,,A,]3 [A,,A,] [C,A,][E,G,] | A,2 [A,C]2 [C,A,][C,A,] | [D,A,]3 [D,D] [E,C][E,B,] | [A,,C]4 |] %17
V:4
 x2 | x6 | x6 | x6 | A,4 A,A, | x6 | A,2 A,2 A,A, | x6 | x6 | x6 | x6 | x6 | x6 | x6 | A,2 x4 | %15
 x6 | x4 |] %17

